X:1
T:En attendant damour
T:Clemens non Papa (c. 1510 - 1555)
T:En attendant damour
T:(C) Wim Looyestijn 2019. May be freely copied for non-commercial use.
T:(C) Wim Looyestijn 2019. May be freely copied for non-commercial use.
T:(C) Wim Looyestijn 2019. May be freely copied for non-commercial use.
T:(C) Wim Looyestijn 2019. May be freely copied for non-commercial use.
T:(C) Wim Looyestijn 2019. May be freely copied for non-commercial use.
T:(C) Wim Looyestijn 2019. May be freely copied for non-commercial use.
T:(C) Wim Looyestijn 2019. May be freely copied for non-commercial use.
C:Clemens non Papa
C:(c. 1510 - 1555)
Z:(C) Wim Looyestijn 2019. May be freely copied for non-commercial use.
%%score [ 1 2 3 4 ]
L:1/8
Q:1/4=120
M:2/2
K:C
V:1 treble nm="Superius"
V:2 alto2 nm="Contra tenor"
V:3 alto nm="Tenor"
V:4 tenor nm="Bassus"
V:1
 x8 | z8 | x8 |[K:Bb] d8 | d4 G4 | d4 d4 | e4 d4 | B4 c4 | d4 B4 | c4 d4- | d2 c2 B4 | A4 G4 | %12
w: |||En|at- ten-|dant d'a-|mour la|jo- ys-|san- *|* ce,|_ _ _|d'a- mour|
 A4 B4- | B2 c2 d4- | d4 c4- | c4 B4 | c4 B4- | B4 A4 | G8- | G8 | z4 c4- | c4 B4 | A8 | G8 | %24
w: la jo-||* ys-||* san-||ce,|_|mon|_ bien|m'a-|mour|
 z4 G4 | c4 c4 | B4 A2 G2 | A8 | G4 e4- | e4 d4- | d4 c4- | c4 B4 | c4 e4- | e4 d2 c2 | B8 | %35
w: et|ma seul'|es- pe- *|ran-|ce, et|_ ma|_ seul'|_ es-|pe- ran-||ce,|
 z4 G4 | B4 c4 | d4 d4 | d4 e4 | d4 e4 | c8 | B8- | B8 | z8 | z8 | z8 | z8 | z8 | z4 d4 | e4 d4 | %50
w: si|vous dig-|nes en|a- voir|cog- nois-|san-|ce,|_||||||mon|pas- se|
 c4 B4 | c4 e4 | d4 c4 | B4 A4- | A4 G4- | G4 ^F4 | G8- | G8- | G8 | z4 G4 | G4 G4 | B6 c2 | %62
w: temps bien|le don-|ne à|cog- nois-|||tre,|_||si|vous dig-|nes en|
 d4 c4 | d4 e4- | e4 d2 c2 | B4 c4 | f6 e2 | d4 c4- | c4 B4 | c4 G4 | G4 F4 | G8- | G8- | G8- | %74
w: a- voir|_ cog-||nois- *|san- *||* ce,|si vous|dig- *|nes,|_||
 G8 | z4 G4 | G4 G4 | B6 c2 | d4 c4 | d4 e4- | e4 d2 c2 | B4 c4 | f6 e2 | d4 c4- | c4 B2 A2 | %85
w: |si|vous dig-|nes _|_ en|a- voir|_ _ _||cog- *|nois- san-||
 B16 |] %86
w: ce.|
V:2
 x8 | z8 | x8 |[K:Bb] z8 | z8 | z8 | G8 | G4 C4 | G4 G4 | A4 G4 | F6 E2 | F4 G4- | G4 F4 | G8 | %14
w: ||||||En|at- ten-|dant d'a-|mour la|jo- *|ys- san-||ce,|
 z4 G4 | G4 G4 | E4 G4- | G4 F2 E2 | D8 | E4 G4- | G4 F4 | G8 | D4 C4- | C2 D2 E4 | G8 | F4 G4 | %26
w: en|at- ten-|dant d'a-||mour|la jo-|* ys-|san-|ce, mon|_ _ bien|m'a-|mour et|
 D4 F4 | F4 E4 | D2 C2 D4 | B,4 C2 D2 | E2 F2 G4- | G4 E4 | C4 E4- | E2 F2 G4- | G4 z4 | z4 D4 | %36
w: ma seul'|es- pe-|* * ran-|ce, _ _|_ _ _|* es-|pe- ran-|* * ce,|_|con-|
 G4 A4 | B8 | B4 B4- | B2 A2 G4- | G4 F4 | G8- | G8 | z4 G4 | A4 G4 | F4 E4- | E4 F2 A2 | %47
w: si- de-|res|le mal|_ en quoy|_ puis|estre|_|mon|pas- se|temps bien|_ le don-|
 G4 F2 E2 | F8 | E4 G4 | A4 G4 | F4 E4 | F6 A2 | G4 F4 | E4 C4 | D8 | E8 | D8 | z4 E4- | E4 D4 | %60
w: ne a cog-|nois-|tre, mon|pas- se|temps bien|le don-|ne à|cog- *|nois-||tre,|si|_ vous|
 C8 | B,4 B4 | B4 A4 | B4 B4 | E4 F4 | G4 A4- | A2 G2 A4 | B4 G4 | G8 | z4 E4 | D4 C4 | D8 | %72
w: dig-|nes, si|vous dig-|* nes|en a-|voir cog-||nois- san-|ce,|si|vous dig-|nes,|
 z4 E4- | E4 D4 | E8 | C4 z4 | C4 C4 | B,4 B4 | B4 A4 | B4 B4 | E4 F4 | G4 A4- | A2 G2 A4 | B4 G4 | %84
w: si|_ vous|dig-|nes,|si vous|dig- nes,|si vous|dig- nes|en a-|voir cog-||nois- san-|
 G8- | G16 |] %86
w: ce.|_|
V:3
 x8 | z8 | x8 |[K:Bb] z8 | z8 | z8 | z8 | z8 | z8 | z8 | D8 | D4 G,4 | D4 D4 | E4 D4 | B,4 C4 | %15
w: ||||||||||En|at- ten-|dant d'a-|mour la|jo- ys-|
 D8 | C4 E4- | E2 D2 C4- | C4 B,4 | C4 E4 | D4 C4 | D4 D4 | F4 F4 | E4 D2 C2 | D8 | C4 C4 | %26
w: san-||||ce, mon|bien m'a-|* mour|et ma|seul' es- pe-|ran-|* ce,|
 D4 B,4 | D4 C4- | C2 D2 E4 | F4 G4 | E4 D2 C2 | D8 | C8- | C8 | z4 G,4 | B,6 C2 | D4 E4 | F4 F4 | %38
w: et ma|seul' es-||* pe-|ran- * *||ce,|_|con-|si- de-|res le|mal en|
 G4 G4 | F4 E4- | E4 D2 C2 | D4 D4 | E4 D4 | C4 B,4 | C4 E4 | D4 C4 | B,4 D4 | z2 C2 C4- | C4 B,4 | %49
w: quoy puis|_ es-||tre mon|pas- se|temps bien|don- ne|a cog-|nois- tre,|mon pas-|* se|
 C4 z2 D2 | E4 D4 | C8 | z4 C4 | D6 C2 | B,4 G,4 | A,8 | G,8- | G,8 | z4 C4- | C4 B,4 | E8 | %61
w: temps, mon|pas- se|temps|bien|don- ne|a cog-|nois-|tre,|_|si|_ vous|dig-|
 D4 G4 | F4 E4 | F4 G4 | C4 C4 | z4 C4 | C4 F4 | F4 E4 | D8 | C8 | z4 C4- | C4 B,4 | C8 | G,8 | %74
w: nes en|a- voir|cog- nois-|san- ce,|en|a- voir|cog- nois-|san-|ce,|si|_ vous|dig-|nes,|
 z4 C4- | C4 B,4 | E8 | D4 G4 | F4 E4 | F4 G4 | C4 C4 | z4 C4- | C4 F4- | F4 E4 | D8- | D16 |] %86
w: si|_ vous|dig-|nes en|a- voir|cog- nois-|san- ce,|cog-|* nois-|* san-|ce.|_|
V:4
"^Source: Second Livre des Chansons a Quatre, Imprimé à Lovain par Pierre Phalese, D.M.LIX.\nOriginal is badly damaged in Contratenor bars 46 and 73; supplied notes are editorial.\nSuggested musica ficta are placed above the stave, in-line accidentals are original." x8 | %1
w: |
 z8 | x8 |[K:Bb] z8 | z8 | z8 | z8 | z8 | z8 | z8 | z8 | z8 | z8 | G,8 | G,4 C,4 | G,4 G,4 | %16
w: ||||||||||||En|at- ten-|dant d'a-|
 A,4 G,4 | E,4 F,4 | G,8 | C,4 C4 | B,4 A,4 | G,8 | z4 F,4 | C4 C4 | B,4 A,2 G,2 | A,8 | G,8 | %27
w: mour la|jo- ys-|san-|ce, jo-|ys- san-|ce,|mon|bien m'a-|mour _ _|_||
 z4 F,4 | C4 C4 | B,4 A,2 G,2 | _A,8 | G,8 | C,8 | z4 C,4 | E,6 F,2 | G,4 G,4 | G,4 C4 | B,6 A,2 | %38
w: et|ma seul'|es- pe- *|ran-||ce,|con-|si- de-|res le|mal en|quoy _|
 G,2 F,2 E,4 | B,4 C4 | A,8 | G,8 | z4 G,4 | A,4 G,4 | F,4 E,4 | F,4 A,4 | G,4 F,4 | E,4 D,2 C,2 | %48
w: _ _ _|puis _|es-|tre|mon|pas- se|temps bien|le don-|ne à|cog- * *|
 D,8 | C,4 G,4 | C4 G,4 | A,4 C4 | B,4 A,4 | B,4 F,4 | G,4 E,4 | D,8 | z4 C4- | C4 B,4 | C8 | G,8 | %60
w: nois-|tre, mon|pas- se|temps bien|le don-|ne a|cog- nois-|tre,|si|_ vous|dig-|nes|
 z4 C,4 | G,6 A,2 | B,4 C4 | B,4 E,4 | _A,8 | G,4 F,4- | F,2 E,2 D,2 C,2 | B,,4 C,4 | G,8 | z4 C4 | %70
w: en|a- voir|cog- nois-|san- ce,|cog-|nois- san-|||ce,|si|
 B,4 A,4 | G,8 | z4 C4- | C4 B,4 | C8 | G,8 | z4 C,4 | G,6 A,2 | B,4 C4 | B,4 E,4 | _A,8 | %81
w: vous dig-|nes,|si|_ vous|dig-|nes|en|a- voir|cog- nois-|san- ce,|cog-|
 G,4 F,4- | F,2 E,2 D,2 C,2 | B,,4 C,4 | G,8- | G,16 |] %86
w: nois- san-|||ce.|_|

